outputs/icons/enterprise/freezer_round.svg

<svg xmlns="http://www.w3.org/2000/svg" width="1200" height="1200" fill="none"><path fill="#000" d="m1011.375 636.99-195.98 53.85-154.515-91.465 154.515-91.465 195.98 53.85c7.81 2.14 16.13 1.02 23.135-3.13 7-4.145 12.11-10.975 14.2-18.98a31.96 31.96 0 0 0-3.045-23.72c-4.045-7.18-10.705-12.42-18.515-14.565l-137.16-37.654 121.06-71.66c6.895-4.199 11.9-11.013 13.925-18.967s.915-16.407-3.095-23.527-10.595-12.333-18.325-14.509c-7.735-2.177-15.99-1.141-22.985 2.882l-121.06 71.66 36.75-140.625c2.095-8.006 1-16.537-3.04-23.716s-10.7-12.419-18.505-14.565c-7.81-2.147-16.13-1.027-23.13 3.116-7.005 4.143-12.115 10.967-14.21 18.973l-52.52 200.958-154.45 91.579V362.304l143.555-147.07c5.58-5.887 8.675-13.789 8.62-21.998-.06-8.209-3.265-16.065-8.925-21.871s-13.32-9.095-21.325-9.157-15.715 3.109-21.46 8.827L630.5 273.945V131.25c0-8.288-3.215-16.237-8.93-22.097S608.1 100 600.02 100c-8.085 0-15.835 3.293-21.555 9.153-5.715 5.86-8.925 13.809-8.925 22.097v142.676l-100.372-102.91c-5.72-5.872-13.479-9.173-21.572-9.179-8.094-.005-15.858 3.286-21.585 9.15-5.727 5.863-8.947 13.819-8.953 22.118-.005 8.298 3.205 16.258 8.925 22.129l143.462 147.09V545.31l-154.512-91.443-52.443-201.035c-2.094-8.005-7.204-14.83-14.206-18.973-7.003-4.143-15.322-5.264-23.131-3.117-7.808 2.148-14.464 7.387-18.505 14.566s-5.134 15.709-3.04 23.716l36.746 140.625-121.059-71.661c-6.993-4.022-15.251-5.058-22.983-2.881s-14.317 7.389-18.326 14.508c-4.01 7.12-5.122 15.573-3.094 23.527s7.03 14.769 13.924 18.968l121.059 71.659-137.156 37.656c-7.811 2.145-14.471 7.385-18.515 14.56-4.044 7.18-5.141 15.715-3.05 23.72 2.092 8.01 7.201 14.84 14.203 18.985s15.324 5.27 23.135 3.125l195.982-53.845 154.511 91.465L384.474 690.9l-196.002-53.91a29.8 29.8 0 0 0-11.891-.835 29.9 29.9 0 0 0-11.296 3.905 30.7 30.7 0 0 0-8.971 8.045 31.6 31.6 0 0 0-5.276 10.955 32 32 0 0 0-.774 12.2 31.8 31.8 0 0 0 3.848 11.565 31 31 0 0 0 7.881 9.17 30.2 30.2 0 0 0 10.707 5.37l137.156 37.675-121.06 71.64a30.8 30.8 0 0 0-9.094 8 31.6 31.6 0 0 0-5.383 10.98 32 32 0 0 0-.839 12.26 31.8 31.8 0 0 0 3.836 11.64 31.1 31.1 0 0 0 7.915 9.225 30.3 30.3 0 0 0 10.774 5.385 29.7 29.7 0 0 0 11.965.705 29.9 29.9 0 0 0 11.306-4.075l121.059-71.64-36.746 140.625a32 32 0 0 0-.765 12.17 31.8 31.8 0 0 0 3.835 11.54 31 31 0 0 0 7.851 9.16 30.1 30.1 0 0 0 10.672 5.38 29.7 29.7 0 0 0 11.868.785 30 30 0 0 0 11.258-3.93 30.7 30.7 0 0 0 8.933-8.05 31.6 31.6 0 0 0 5.249-10.94l52.52-200.94 154.51-91.465v182.93l-143.462 147.09a31.4 31.4 0 0 0-6.611 10.14 32 32 0 0 0-2.323 11.965 31.9 31.9 0 0 0 2.318 11.96 31.4 31.4 0 0 0 6.607 10.145 30.5 30.5 0 0 0 9.89 6.78 29.9 29.9 0 0 0 11.668 2.38c4.003 0 7.969-.805 11.668-2.375a30.5 30.5 0 0 0 9.893-6.775l100.372-102.91v143.925c0 8.29 3.21 16.235 8.925 22.095 5.72 5.865 13.47 9.155 21.555 9.155 8.08 0 15.835-3.29 21.55-9.155 5.715-5.86 8.93-13.805 8.93-22.095V924.805l100.275 102.93a30.5 30.5 0 0 0 9.895 6.79 29.9 29.9 0 0 0 11.68 2.39c4.005 0 7.975-.805 11.675-2.375a30.5 30.5 0 0 0 9.905-6.775 31.4 31.4 0 0 0 6.625-10.145 32 32 0 0 0 2.33-11.975c0-4.11-.785-8.175-2.315-11.975a31.4 31.4 0 0 0-6.61-10.155L630.5 836.425v-182.93l154.51 91.465 52.52 200.94a31.7 31.7 0 0 0 5.235 10.975 30.7 30.7 0 0 0 8.945 8.08 29.9 29.9 0 0 0 11.28 3.945c3.98.54 8.02.27 11.895-.79a30.3 30.3 0 0 0 10.69-5.41 31.1 31.1 0 0 0 7.845-9.2c2-3.565 3.295-7.5 3.805-11.58.515-4.08.24-8.225-.815-12.195L859.665 789.1l121.06 71.64a29.8 29.8 0 0 0 22.98 2.885c7.735-2.175 14.32-7.39 18.33-14.51s5.12-15.57 3.09-23.525c-2.025-7.955-7.03-14.77-13.92-18.97l-121.06-71.64 137.155-37.675a30.2 30.2 0 0 0 10.71-5.37 31.1 31.1 0 0 0 7.88-9.17c2.01-3.56 3.32-7.49 3.845-11.565a31.9 31.9 0 0 0-.775-12.195 31.5 31.5 0 0 0-5.275-10.96 30.8 30.8 0 0 0-8.97-8.045 30 30 0 0 0-11.295-3.905c-3.98-.525-8.02-.24-11.895.84z"/></svg>

<svg width="1200" height="1200" viewBox="0 0 1200 1200" fill="none" xmlns="http://www.w3.org/2000/svg"><path d="M1011.375 636.99L815.395 690.84L660.88 599.375L815.395 507.91L1011.375 561.76C1019.185 563.9 1027.505 562.78 1034.51 558.63C1041.51 554.485 1046.62 547.655 1048.71 539.65C1050.805 531.64 1049.705 523.11 1045.665 515.93C1041.62 508.75 1034.96 503.51 1027.15 501.365L889.99 463.711L1011.05 392.051C1017.945 387.852 1022.95 381.038 1024.975 373.084C1027 365.13 1025.89 356.677 1021.88 349.557C1017.87 342.437 1011.285 337.224 1003.555 335.048C995.82 332.871 987.565 333.907 980.57 337.93L859.51 409.59L896.26 268.965C898.355 260.959 897.26 252.428 893.22 245.249C889.18 238.07 882.52 232.83 874.715 230.684C866.905 228.537 858.585 229.657 851.585 233.8C844.58 237.943 839.47 244.767 837.375 252.773L784.855 453.731L630.405 545.31V362.304L773.96 215.234C779.54 209.347 782.635 201.445 782.58 193.236C782.52 185.027 779.315 177.171 773.655 171.365C767.995 165.559 760.335 162.27 752.33 162.208C744.325 162.147 736.615 165.317 730.87 171.035L630.5 273.945V131.25C630.5 122.962 627.285 115.013 621.57 109.153C615.855 103.293 608.1 100 600.02 100C591.935 100 584.185 103.293 578.465 109.153C572.75 115.013 569.54 122.962 569.54 131.25V273.926L469.168 171.016C463.448 165.144 455.689 161.843 447.596 161.837C439.502 161.832 431.738 165.123 426.011 170.987C420.284 176.85 417.064 184.806 417.058 193.105C417.053 201.403 420.263 209.363 425.983 215.234L569.445 362.324V545.31L414.933 453.867L362.49 252.832C360.396 244.827 355.286 238.002 348.284 233.859C341.281 229.716 332.962 228.595 325.153 230.742C317.345 232.89 310.689 238.129 306.648 245.308C302.608 252.487 301.514 261.017 303.608 269.024L340.354 409.649L219.295 337.988C212.302 333.966 204.044 332.93 196.312 335.107C188.58 337.283 181.995 342.496 177.986 349.615C173.976 356.735 172.864 365.188 174.892 373.142C176.919 381.096 181.922 387.911 188.816 392.11L309.875 463.769L172.719 501.425C164.908 503.57 158.248 508.81 154.204 515.985C150.16 523.165 149.063 531.7 151.154 539.705C153.246 547.715 158.355 554.545 165.357 558.69C172.359 562.835 180.681 563.96 188.492 561.815L384.474 507.97L538.985 599.435L384.474 690.9L188.472 636.99C184.601 635.915 180.56 635.63 176.581 636.155C172.602 636.68 168.763 638.005 165.285 640.06C161.808 642.11 158.759 644.845 156.314 648.105C153.869 651.365 152.076 655.09 151.038 659.06C150 663.035 149.737 667.18 150.264 671.26C150.792 675.335 152.1 679.265 154.112 682.825C156.125 686.385 158.803 689.5 161.993 691.995C165.182 694.49 168.82 696.315 172.7 697.365L309.856 735.04L188.796 806.68C185.278 808.705 182.187 811.425 179.702 814.68C177.216 817.94 175.387 821.67 174.319 825.66C173.25 829.65 172.965 833.815 173.48 837.92C173.995 842.02 175.298 845.975 177.316 849.56C179.333 853.14 182.024 856.275 185.231 858.785C188.44 861.29 192.102 863.12 196.005 864.17C199.908 865.215 203.975 865.455 207.97 864.875C211.964 864.3 215.808 862.915 219.276 860.8L340.335 789.16L303.589 929.785C302.557 933.75 302.297 937.885 302.824 941.955C303.351 946.02 304.654 949.945 306.659 953.495C308.663 957.05 311.332 960.16 314.51 962.655C317.688 965.15 321.314 966.98 325.182 968.035C329.049 969.095 333.082 969.36 337.05 968.82C341.018 968.28 344.844 966.945 348.308 964.89C351.772 962.835 354.808 960.1 357.241 956.84C359.675 953.58 361.459 949.865 362.49 945.9L415.01 744.96L569.52 653.495V836.425L426.058 983.515C423.226 986.42 420.98 989.865 419.447 993.655C417.914 997.45 417.125 1001.515 417.124 1005.62C417.123 1009.725 417.91 1013.79 419.442 1017.58C420.974 1021.375 423.219 1024.82 426.049 1027.725C428.88 1030.63 432.24 1032.93 435.939 1034.505C439.638 1036.075 443.602 1036.885 447.607 1036.885C451.61 1036.885 455.576 1036.08 459.275 1034.51C462.974 1032.94 466.336 1030.635 469.168 1027.735L569.54 924.825V1068.75C569.54 1077.04 572.75 1084.985 578.465 1090.845C584.185 1096.71 591.935 1100 600.02 1100C608.1 1100 615.855 1096.71 621.57 1090.845C627.285 1084.985 630.5 1077.04 630.5 1068.75V924.805L730.775 1027.735C733.605 1030.64 736.97 1032.95 740.67 1034.525C744.37 1036.1 748.34 1036.91 752.35 1036.915C756.355 1036.915 760.325 1036.11 764.025 1034.54C767.73 1032.97 771.095 1030.665 773.93 1027.765C776.765 1024.86 779.015 1021.415 780.555 1017.62C782.09 1013.825 782.88 1009.755 782.885 1005.645C782.885 1001.535 782.1 997.47 780.57 993.67C779.04 989.875 776.79 986.425 773.96 983.515L630.5 836.425V653.495L785.01 744.96L837.53 945.9C838.555 949.875 840.335 953.605 842.765 956.875C845.2 960.145 848.24 962.895 851.71 964.955C855.18 967.02 859.015 968.36 862.99 968.9C866.97 969.44 871.01 969.17 874.885 968.11C878.76 967.045 882.39 965.205 885.575 962.7C888.755 960.19 891.42 957.065 893.42 953.5C895.42 949.935 896.715 946 897.225 941.92C897.74 937.84 897.465 933.695 896.41 929.725L859.665 789.1L980.725 860.74C987.715 864.765 995.975 865.8 1003.705 863.625C1011.44 861.445 1018.025 856.235 1022.035 849.115C1026.045 841.995 1027.155 833.545 1025.125 825.59C1023.1 817.635 1018.095 810.82 1011.205 806.62L890.145 734.98L1027.3 697.305C1031.18 696.255 1034.82 694.43 1038.01 691.935C1041.195 689.44 1043.875 686.325 1045.89 682.765C1047.9 679.205 1049.21 675.275 1049.735 671.2C1050.265 667.12 1050 662.975 1048.96 659.005C1047.925 655.03 1046.13 651.305 1043.685 648.045C1041.24 644.785 1038.19 642.05 1034.715 640C1031.235 637.95 1027.4 636.62 1023.42 636.095C1019.44 635.57 1015.4 635.855 1011.525 636.935L1011.375 636.99Z" fill="#1D1E23"/></svg>
